assets/img/icons/s-whatsapp.svg

<svg width="25" height="25" viewBox="0 0 25 25" fill="none" xmlns="http://www.w3.org/2000/svg">
<path fill-rule="evenodd" clip-rule="evenodd" d="M12.5 25C19.4036 25 25 19.4036 25 12.5C25 5.59644 19.4036 0 12.5 0C5.59644 0 0 5.59644 0 12.5C0 19.4036 5.59644 25 12.5 25Z" fill="#6FA2A7"/>
<path fill-rule="evenodd" clip-rule="evenodd" d="M12.9119 19.4544H12.9088C11.6648 19.4539 10.4424 19.1418 9.35679 18.5496L5.4165 19.5833L6.47099 15.7316C5.82053 14.6044 5.47826 13.3257 5.47882 12.0157C5.48045 7.91747 8.81485 4.58325 12.9118 4.58325C14.9002 4.58411 16.7664 5.35818 18.1697 6.76315C19.5731 8.16805 20.3455 10.0355 20.3447 12.0215C20.3431 16.1188 17.01 19.4527 12.9119 19.4544ZM9.53945 17.2042L9.76505 17.3381C10.7136 17.901 11.8009 18.1988 12.9095 18.1992H12.912C16.317 18.1992 19.0884 15.4278 19.0898 12.0213C19.0904 10.3705 18.4485 8.81837 17.2821 7.65061C16.1157 6.48285 14.5645 5.83944 12.9144 5.83887C9.50667 5.83887 6.73524 8.61005 6.73389 12.0163C6.73341 13.1836 7.06003 14.3205 7.67845 15.3041L7.82534 15.5378L7.20123 17.8176L9.53945 17.2042ZM16.6567 13.7892C16.6103 13.7117 16.4865 13.6652 16.3008 13.5722C16.1151 13.4793 15.202 13.03 15.0317 12.968C14.8615 12.906 14.7377 12.8751 14.6139 13.0609C14.4901 13.2468 14.1341 13.6652 14.0258 13.7892C13.9175 13.9131 13.8091 13.9287 13.6235 13.8357C13.4377 13.7427 12.8393 13.5466 12.1299 12.9138C11.5778 12.4214 11.2051 11.8132 11.0967 11.6273C10.9884 11.4413 11.0852 11.3408 11.1781 11.2482C11.2617 11.165 11.3639 11.0313 11.4567 10.9228C11.5496 10.8144 11.5805 10.7369 11.6424 10.613C11.7044 10.489 11.6734 10.3806 11.627 10.2877C11.5805 10.1947 11.2091 9.28052 11.0543 8.90864C10.9036 8.54649 10.7505 8.59555 10.6365 8.58983C10.5283 8.5844 10.4043 8.58325 10.2805 8.58325C10.1567 8.58325 9.9555 8.62974 9.78527 8.81567C9.61504 9.00161 9.13525 9.45094 9.13525 10.365C9.13525 11.2792 9.80074 12.1623 9.89361 12.2863C9.98646 12.4103 11.2032 14.2861 13.0663 15.0906C13.5094 15.282 13.8553 15.3962 14.1251 15.4818C14.57 15.6232 14.9749 15.6033 15.2948 15.5554C15.6517 15.5021 16.3936 15.1062 16.5485 14.6724C16.7032 14.2385 16.7032 13.8666 16.6567 13.7892Z" fill="#FDFDFD"/>
</svg>

<svg width="25" height="25" fill="none" xmlns="http://www.w3.org/2000/svg"><path fill-rule="evenodd" clip-rule="evenodd" d="M12.5 25C19.404 25 25 19.404 25 12.5S19.404 0 12.5 0 0 5.596 0 12.5 5.596 25 12.5 25Z" fill="#6FA2A7"/><path fill-rule="evenodd" clip-rule="evenodd" d="M12.912 19.454h-.003a7.427 7.427 0 0 1-3.552-.904l-3.94 1.033 1.054-3.851a7.42 7.42 0 0 1-.992-3.716c.001-4.099 3.336-7.433 7.433-7.433 1.988.001 3.854.775 5.258 2.18a7.387 7.387 0 0 1 2.175 5.258c-.002 4.098-3.335 7.432-7.433 7.433Zm-3.373-2.25.226.134c.949.563 2.036.86 3.144.861h.003a6.187 6.187 0 0 0 6.178-6.178 6.14 6.14 0 0 0-1.808-4.37 6.136 6.136 0 0 0-4.368-1.812 6.187 6.187 0 0 0-6.18 6.177c0 1.168.326 2.304.944 3.288l.147.234-.624 2.28 2.338-.614Zm7.118-3.415c-.047-.077-.17-.124-.356-.217-.186-.093-1.099-.542-1.27-.604-.17-.062-.293-.093-.417.093s-.48.604-.588.728c-.108.124-.217.14-.402.047-.186-.093-.785-.29-1.494-.922a5.6 5.6 0 0 1-1.033-1.287c-.109-.186-.012-.286.081-.379.084-.083.186-.217.279-.325.093-.109.123-.186.185-.31s.031-.232-.015-.325-.418-1.007-.573-1.38c-.15-.362-.303-.312-.418-.318a7.385 7.385 0 0 0-.355-.007.682.682 0 0 0-.496.233c-.17.186-.65.635-.65 1.549 0 .914.666 1.797.759 1.921.092.124 1.31 2 3.172 2.805.443.191.79.305 1.06.39.444.142.849.122 1.169.074.357-.053 1.099-.449 1.254-.883.154-.434.154-.805.108-.883Z" fill="#FDFDFD"/></svg>
